src/assets/icons/fa/toggle-right.svg

<?xml version="1.0" encoding="utf-8"?>
<svg width="1792" height="1792" viewBox="0 0 1792 1792" xmlns="http://www.w3.org/2000/svg"><path d="M1216 896q0 33-27 52l-448 320q-31 23-66 5-35-17-35-57v-640q0-40 35-57 35-18 66 5l448 320q27 19 27 52zm192 480v-960q0-14-9-23t-23-9h-960q-14 0-23 9t-9 23v960q0 14 9 23t23 9h960q14 0 23-9t9-23zm256-960v960q0 119-84.5 203.5t-203.5 84.5h-960q-119 0-203.5-84.5t-84.5-203.5v-960q0-119 84.5-203.5t203.5-84.5h960q119 0 203.5 84.5t84.5 203.5z"/></svg>

<svg width="1792" height="1792" xmlns="http://www.w3.org/2000/svg"><path d="M1216 896q0 33-27 52l-448 320q-31 23-66 5-35-17-35-57V576q0-40 35-57 35-18 66 5l448 320q27 19 27 52zm192 480V416q0-14-9-23t-23-9H416q-14 0-23 9t-9 23v960q0 14 9 23t23 9h960q14 0 23-9t9-23zm256-960v960q0 119-84.5 203.5T1376 1664H416q-119 0-203.5-84.5T128 1376V416q0-119 84.5-203.5T416 128h960q119 0 203.5 84.5T1664 416z"/></svg>
